src/assets/icons/archived.svg

<svg width="24" height="24" viewBox="0 0 24 24" fill="none" xmlns="http://www.w3.org/2000/svg">
  <path d="M6 10H18V17C18 18.1046 17.1046 19 16 19H8C6.89543 19 6 18.1046 6 17V10Z" stroke="#314158" stroke-width="1.5"/>
  <path d="M4.5 6.5C4.5 5.39543 5.39543 4.5 6.5 4.5H17.5C18.6046 4.5 19.5 5.39543 19.5 6.5C19.5 7.60457 18.6046 8.5 17.5 8.5H6.5C5.39543 8.5 4.5 7.60457 4.5 6.5Z" stroke="#314158" stroke-width="1.5"/>
  <path d="M10 13.5H14" stroke="#314158" stroke-width="1.5" stroke-linecap="round"/>
</svg>

<svg fill="none" viewBox="0 0 24 24"><path stroke="currentColor" stroke-width="1.5" d="M6 10h12v7a2 2 0 0 1-2 2H8a2 2 0 0 1-2-2zM4.5 6.5a2 2 0 0 1 2-2h11a2 2 0 1 1 0 4h-11a2 2 0 0 1-2-2Z"/><path stroke="currentColor" stroke-linecap="round" stroke-width="1.5" d="M10 13.5h4"/></svg>
